images/linkimg/logo-palettesite.svg

<svg height="90" viewBox="0 0 180 90" width="180" xmlns="http://www.w3.org/2000/svg" xmlns:xlink="http://www.w3.org/1999/xlink"><mask id="a" fill="#fff"/><g fill="none" fill-rule="nonzero" transform="translate(0 32)"><path d="m48.4381882 17.5158188c-.381326.6288533-.9432716 1.1305905-1.6858537 1.5052265s-1.642364.5619512-2.6993728.5619512c-1.5922031 0-2.9034095-.3880101-3.9336586-1.1640418-1.030249-.7760317-1.5921946-1.859784-1.6858536-3.2512892h3.6526829c.0535195.5351943.2441795.9566535.5719861 1.2643902.3278065.3077368.7459208.4616028 1.2543554.4616028.4415353 0 .7894063-.1204169 1.0436237-.3612543.2542173-.2408374.381324-.5619492.381324-.963345 0-.3612561-.117072-.6622984-.3512195-.9031359-.2341475-.2408374-.5251551-.4381873-.8730314-.5920557-.3478762-.1538684-.829544-.3378387-1.4450174-.5519164-.8964505-.3077367-1.6289867-.6054341-2.1976307-.893101-.5686439-.287667-1.0570014-.715816-1.4650871-1.28446-.4080856-.5686439-.6121254-1.30787-.6121254-2.2177003 0-.84293104.2140745-1.57212239.64223-2.18759582.4281554-.61547344 1.0202052-1.08710637 1.7761672-1.4149129.755962-.32780652 1.6222948-.49170731 2.5990244-.49170731 1.5788232 0 2.8331661.37463042 3.7630662 1.12390244.9299001.74927201 1.4550516 1.77950565 1.5754704 3.0907317h-3.712892c-.0668993-.46829502-.2374899-.83958052-.511777-1.11386759-.2742871-.27428708-.6455726-.41142857-1.1138676-.41142857-.4013957 0-.7258524.10703728-.9733798.32111498-.2475273.2140777-.3712892.52849969-.3712892.94327526 0 .33449645.1103822.61881416.3311498.85296167.2207677.23414754.4983956.42480764.832892.57198604.3344965.1471784.8161641.3344936 1.4450175.5619512.9098303.3077368 1.6524013.612124 2.2277351.9131708.5753339.3010468 1.0703813.7392306 1.4851568 1.3145644.4147756.5753339.6221603 1.3245947.6221603 2.2478049 0 .749272-.1906601 1.4383244-.571986 2.0671777zm7.4784669-12.26257838v14.18926828h-3.4319164v-14.18926828zm14.1315679 0v2.72947735h-3.8533798v11.45979093h-3.4519861v-11.45979093h-3.8132404v-2.72947735zm6.444878 2.72947735v2.97031363h4.7966551v2.5889895h-4.7966551v3.1509408h5.3987457v2.749547h-8.830662v-14.18926828h8.830662v2.72947735zm17.9272474 6.48250873v4.9772822h-3.4319163v-14.18926828h5.5593031c1.6858618 0 2.9703092.41811428 3.8533798 1.2543554.883071.83624111 1.324599 1.96347725 1.324599 3.38174216 0 .88307062-.19735 1.66912542-.592055 2.35818812-.394706.6890627-.980066 1.2309388-1.756098 1.6256446-.7760321.3947059-1.7192973.5920558-2.8298258.5920558zm3.8132405-4.57588852c0-1.24432677-.6890526-1.86648084-2.0671778-1.86648084h-1.7460627v3.69282226h1.7460627c1.3781252 0 2.0671778-.6087744 2.0671778-1.82634142zm15.5364461 6.96418122h-5.318467l-.883066 2.5889895h-3.612544l5.198049-14.08891985h3.953728l5.198049 14.08891985h-3.652683zm-.883066-2.6090593-1.766133-5.21811844-1.786202 5.21811844zm11.743275 2.5689199h4.575888v2.6291289h-8.007804v-14.18926828h3.431916zm11.161254-8.83066203v2.97031363h4.796655v2.5889895h-4.796655v3.1509408h5.398746v2.749547h-8.830662v-14.18926828h8.830662v2.72947735zm19.10885-2.72947735v2.72947735h-3.853379v11.45979093h-3.451986v-11.45979093h-3.813241v-2.72947735zm13.208363 0v2.72947735h-3.85338v11.45979093h-3.451986v-11.45979093h-3.81324v-2.72947735zm6.444878 2.72947735v2.97031363h4.796655v2.5889895h-4.796655v3.1509408h5.398745v2.749547h-8.830662v-14.18926828h8.830662v2.72947735z" fill="#3d3d3d"/><g mask="url(#a)"><path d="m0 0h12.543554v12.543554h-12.543554z" fill="#8c61ff"/><path d="m0 12.543554h12.543554v12.543554h-12.543554z" fill="#36c3fe"/><path d="m12.543554 12.543554h12.543554v12.543554h-12.543554z" fill="#6592fe"/><path d="m12.543554 0h12.543554v12.543554h-12.543554z" fill="#6059f7"/></g></g></svg>

<?xml version="1.0" encoding="UTF-8"?>
<svg width="180px" height="90px" viewBox="0 0 180 90" version="1.1" xmlns="http://www.w3.org/2000/svg" xmlns:xlink="http://www.w3.org/1999/xlink">
    <!-- Generator: Sketch 55.2 (78181) - https://sketchapp.com -->
    <title>logo_palettesite</title>
    <desc>Created with Sketch.</desc>
    <defs>
        <rect id="path-1" x="0" y="0" width="25.087108" height="25.087108" rx="4"></rect>
    </defs>
    <g id="logo_palettesite" stroke="none" stroke-width="1" fill="none" fill-rule="evenodd">
        <g id="site-palette-logo-b7756e5dabdee55195b480d819d5f4f8b37dcd759767909caacec53f9d6dcc48" transform="translate(0.000000, 32.000000)">
            <path d="M48.4381882,17.5158188 C48.0568622,18.1446721 47.4949166,18.6464093 46.7523345,19.0210453 C46.0097524,19.3956813 45.1099705,19.5829965 44.0529617,19.5829965 C42.4607586,19.5829965 41.1495522,19.1949864 40.1193031,18.4189547 C39.0890541,17.642923 38.5271085,16.5591707 38.4334495,15.1676655 L42.0861324,15.1676655 C42.1396519,15.7028598 42.3303119,16.124319 42.6581185,16.4320557 C42.985925,16.7397925 43.4040393,16.8936585 43.9124739,16.8936585 C44.3540092,16.8936585 44.7018802,16.7732416 44.9560976,16.5324042 C45.2103149,16.2915668 45.3374216,15.970455 45.3374216,15.5690592 C45.3374216,15.2078031 45.2203496,14.9067608 44.9862021,14.6659233 C44.7520546,14.4250859 44.461047,14.227736 44.1131707,14.0738676 C43.7652945,13.9199992 43.2836267,13.7360289 42.6681533,13.5219512 C41.7717028,13.2142145 41.0391666,12.9165171 40.4705226,12.6288502 C39.9018787,12.3411832 39.4135212,11.9130342 39.0054355,11.3443902 C38.5973499,10.7757463 38.3933101,10.0365202 38.3933101,9.1266899 C38.3933101,8.28375886 38.6073846,7.55456751 39.0355401,6.93909408 C39.4636955,6.32362064 40.0557453,5.85198771 40.8117073,5.52418118 C41.5676693,5.19637466 42.4340021,5.03247387 43.4107317,5.03247387 C44.9895549,5.03247387 46.2438978,5.40710429 47.1737979,6.15637631 C48.103698,6.90564832 48.6288495,7.93588196 48.7492683,9.24710801 L45.0363763,9.24710801 C44.969477,8.77881299 44.7988864,8.40752749 44.5245993,8.13324042 C44.2503122,7.85895334 43.8790267,7.72181185 43.4107317,7.72181185 C43.009336,7.72181185 42.6848793,7.82884913 42.4373519,8.04292683 C42.1898246,8.25700453 42.0660627,8.57142652 42.0660627,8.98620209 C42.0660627,9.32069854 42.1764449,9.60501625 42.3972125,9.83916376 C42.6179802,10.0733113 42.8956081,10.2639714 43.2301045,10.4111498 C43.564601,10.5583282 44.0462686,10.7456434 44.675122,10.973101 C45.5849523,11.2808378 46.3275233,11.585225 46.9028571,11.8862718 C47.478191,12.1873186 47.9732384,12.6255024 48.3880139,13.2008362 C48.8027895,13.7761701 49.0101742,14.5254309 49.0101742,15.4486411 C49.0101742,16.1979131 48.8195141,16.8869655 48.4381882,17.5158188 Z M55.9166551,5.25324042 L55.9166551,19.4425087 L52.4847387,19.4425087 L52.4847387,5.25324042 L55.9166551,5.25324042 Z M70.048223,5.25324042 L70.048223,7.98271777 L66.1948432,7.98271777 L66.1948432,19.4425087 L62.7428571,19.4425087 L62.7428571,7.98271777 L58.9296167,7.98271777 L58.9296167,5.25324042 L70.048223,5.25324042 Z M76.493101,7.98271777 L76.493101,10.9530314 L81.2897561,10.9530314 L81.2897561,13.5420209 L76.493101,13.5420209 L76.493101,16.6929617 L81.8918467,16.6929617 L81.8918467,19.4425087 L73.0611847,19.4425087 L73.0611847,5.25324042 L81.8918467,5.25324042 L81.8918467,7.98271777 L76.493101,7.98271777 Z M94.4203484,14.4652265 L94.4203484,19.4425087 L90.9884321,19.4425087 L90.9884321,5.25324042 L96.5477352,5.25324042 C98.233597,5.25324042 99.5180444,5.6713547 100.401115,6.50759582 C101.284186,7.34383693 101.725714,8.47107307 101.725714,9.88933798 C101.725714,10.7724086 101.528364,11.5584634 101.133659,12.2475261 C100.738953,12.9365888 100.153593,13.4784649 99.377561,13.8731707 C98.6015289,14.2678766 97.6582637,14.4652265 96.5477352,14.4652265 L94.4203484,14.4652265 Z M98.2335889,9.88933798 C98.2335889,8.64501121 97.5445363,8.02285714 96.1664111,8.02285714 L94.4203484,8.02285714 L94.4203484,11.7156794 L96.1664111,11.7156794 C97.5445363,11.7156794 98.2335889,11.106905 98.2335889,9.88933798 Z M113.770035,16.8535192 L108.451568,16.8535192 L107.568502,19.4425087 L103.955958,19.4425087 L109.154007,5.35358885 L113.107735,5.35358885 L118.305784,19.4425087 L114.653101,19.4425087 L113.770035,16.8535192 Z M112.886969,14.2444599 L111.120836,9.02634146 L109.334634,14.2444599 L112.886969,14.2444599 Z M124.630244,16.8133798 L129.206132,16.8133798 L129.206132,19.4425087 L121.198328,19.4425087 L121.198328,5.25324042 L124.630244,5.25324042 L124.630244,16.8133798 Z M135.791498,7.98271777 L135.791498,10.9530314 L140.588153,10.9530314 L140.588153,13.5420209 L135.791498,13.5420209 L135.791498,16.6929617 L141.190244,16.6929617 L141.190244,19.4425087 L132.359582,19.4425087 L132.359582,5.25324042 L141.190244,5.25324042 L141.190244,7.98271777 L135.791498,7.98271777 Z M154.900348,5.25324042 L154.900348,7.98271777 L151.046969,7.98271777 L151.046969,19.4425087 L147.594983,19.4425087 L147.594983,7.98271777 L143.781742,7.98271777 L143.781742,5.25324042 L154.900348,5.25324042 Z M168.108711,5.25324042 L168.108711,7.98271777 L164.255331,7.98271777 L164.255331,19.4425087 L160.803345,19.4425087 L160.803345,7.98271777 L156.990105,7.98271777 L156.990105,5.25324042 L168.108711,5.25324042 Z M174.553589,7.98271777 L174.553589,10.9530314 L179.350244,10.9530314 L179.350244,13.5420209 L174.553589,13.5420209 L174.553589,16.6929617 L179.952334,16.6929617 L179.952334,19.4425087 L171.121672,19.4425087 L171.121672,5.25324042 L179.952334,5.25324042 L179.952334,7.98271777 L174.553589,7.98271777 Z" id="SITE-PALETTE" fill="#3D3D3D" fill-rule="nonzero"></path>
            <g id="Group">
                <g id="Group-2">
                    <g id="Rectangle-2-Clipped">
                        <mask id="mask-2" fill="white">
                            <use xlink:href="#path-1"></use>
                        </mask>
                        <g id="path-1"></g>
                        <g id="Rectangle-2" mask="url(#mask-2)" fill-rule="nonzero">
                            <rect id="矩形" fill="#8C61FF" x="0" y="0" width="12.543554" height="12.543554"></rect>
                            <rect id="矩形" fill="#36C3FE" x="0" y="12.543554" width="12.543554" height="12.543554"></rect>
                            <rect id="矩形" fill="#6592FE" x="12.543554" y="12.543554" width="12.543554" height="12.543554"></rect>
                            <rect id="矩形" fill="#6059F7" x="12.543554" y="0" width="12.543554" height="12.543554"></rect>
                        </g>
                    </g>
                </g>
            </g>
        </g>
    </g>
</svg>
